X:417
T: "Die Rabenmutter"
N: Z1097
O: Europa, Mitteleuropa, Deutschland, Franken
R: Romanze, Ballade, Tod
M: 3/4
L: 1/8
K: G
 | d2G2A2 | GFG2z2 |
D2_B2c2 | dc_B2z2 |
d2=f2_ed | d2_e2d2 | c4c2 | _B2z4 |
d2d2c2 | Bdc2z2 |
d2_e2d2 | c2d2z2 |
GFG2A2 | _Bcd2cB | A4A2 | G2z4

@@@ Tune index: 10175
